addons/input_prompts/joypad_button_prompt/icon.svg

<svg height="16" viewBox="0 0 16 16" width="16" xmlns="http://www.w3.org/2000/svg"><path d="m5.25 3h2.3a1.15 1.15 0 0 1 1.15 1.15v9.2a1.15 1.15 0 0 1 -1.15 1.15h-2.3a1.15 1.15 0 0 1 -1.15-1.15v-2.3h-2.3a1.15 1.15 0 0 1 -1.15-1.15v-2.3a1.15 1.15 0 0 1 1.15-1.15h2.3v-2.3a1.15 1.15 0 0 1 1.15-1.15zm1.15 4.025a1.15 1.15 0 0 0 0 3.45 1.15 1.15 0 0 0 0-3.45z" fill="#90ef99"/><path d="m8.7 6.3h2.3a1.15 1.15 0 0 1 1.15 1.15v2.3a1.15 1.15 0 0 1 -1.15 1.15h-2.3" fill="#90ef99"/><path d="m13.25 7.25 1.7-.4m-2.2-1.35 1.3-1.3m-3.05.8.4-1.7" stroke="#8fef99" stroke-linecap="round" stroke-width="1.25"/></svg>

<?xml version="1.0" encoding="UTF-8" standalone="no"?>
<svg
   height="16"
   viewBox="0 0 16 16"
   width="16"
   version="1.1"
   id="svg3"
   sodipodi:docname="InputEventJoypadButton.svg"
   inkscape:version="1.3 (0e150ed6c4, 2023-07-21)"
   xmlns:inkscape="http://www.inkscape.org/namespaces/inkscape"
   xmlns:sodipodi="http://sodipodi.sourceforge.net/DTD/sodipodi-0.dtd"
   xmlns="http://www.w3.org/2000/svg"
   xmlns:svg="http://www.w3.org/2000/svg">
  <defs
     id="defs3" />
  <sodipodi:namedview
     id="namedview3"
     pagecolor="#ffffff"
     bordercolor="#000000"
     borderopacity="0.25"
     inkscape:showpageshadow="2"
     inkscape:pageopacity="0.0"
     inkscape:pagecheckerboard="0"
     inkscape:deskcolor="#d1d1d1"
     inkscape:zoom="50.125"
     inkscape:cx="8"
     inkscape:cy="8"
     inkscape:window-width="1920"
     inkscape:window-height="997"
     inkscape:window-x="0"
     inkscape:window-y="0"
     inkscape:window-maximized="1"
     inkscape:current-layer="svg3" />
  <path
     d="M5.25 3h2.3A1.15 1.15 0 0 1 8.7 4.15v9.2a1.15 1.15 0 0 1-1.15 1.15h-2.3a1.15 1.15 0 0 1-1.15-1.15v-2.3H1.8A1.15 1.15 0 0 1 .65 9.9V7.6A1.15 1.15 0 0 1 1.8 6.45h2.3v-2.3A1.15 1.15 0 0 1 5.25 3zM6.4 7.025a1.15 1.15 0 0 0 0 3.45 1.15 1.15 0 0 0 0-3.45Z"
     fill="#e0e0e0"
     id="path1"
     style="fill:#90ef99;fill-opacity:1" />
  <path
     d="M8.7 6.3H11a1.15 1.15 0 0 1 1.15 1.15v2.3A1.15 1.15 0 0 1 11 10.9H8.7"
     fill="#69c4d4"
     id="path2"
     style="fill:#90ef99;fill-opacity:1" />
  <path
     d="m13.25 7.25 1.7-.4m-2.2-1.35 1.3-1.3M11 5l.4-1.7"
     stroke-width="1.25"
     stroke-linecap="round"
     stroke="#69c4d4"
     id="path3"
     style="stroke:#8fef99;stroke-opacity:1" />
</svg>
